X: 2300
M: C
L: 1/8
K: A
uE2 |\
E2(AB) cAaf | ecAc (BA)(FB) |\
E2(AB) cAaf | ecBc A2 :|
|: (Ad) |\
f2fg a2af | efec (dc)(BA) |\
(Ac)(ec) (Ad)(fd) | efec dcBA |\
ebaf edcB | c2A2 A2 :|


